src/static/icons/instagram.svg

<svg width="24" height="24" viewBox="0 0 24 24" xmlns="http://www.w3.org/2000/svg">
<path d="M11.4981 9.99894C10.1209 9.99894 8.99706 11.1228 8.99706 12.5C8.99706 13.8772 10.1209 15.0011 11.4981 15.0011C12.8753 15.0011 13.9992 13.8772 13.9992 12.5C13.9992 11.1228 12.8753 9.99894 11.4981 9.99894ZM18.9994 12.5C18.9994 11.4643 19.0088 10.438 18.9507 9.40416C18.8925 8.20335 18.6186 7.13763 17.7405 6.25953C16.8605 5.37956 15.7967 5.10751 14.5958 5.04934C13.5601 4.99118 12.5338 5.00056 11.5 5.00056C10.4643 5.00056 9.43798 4.99118 8.40416 5.04934C7.20335 5.10751 6.13763 5.38144 5.25953 6.25953C4.37956 7.1395 4.10751 8.20335 4.04934 9.40416C3.99118 10.4399 4.00056 11.4662 4.00056 12.5C4.00056 13.5338 3.99118 14.562 4.04934 15.5958C4.10751 16.7967 4.38144 17.8624 5.25953 18.7405C6.1395 19.6204 7.20335 19.8925 8.40416 19.9507C9.43986 20.0088 10.4662 19.9994 11.5 19.9994C12.5357 19.9994 13.562 20.0088 14.5958 19.9507C15.7967 19.8925 16.8624 19.6186 17.7405 18.7405C18.6204 17.8605 18.8925 16.7967 18.9507 15.5958C19.0107 14.562 18.9994 13.5357 18.9994 12.5ZM11.4981 16.3482C9.36856 16.3482 7.6499 14.6296 7.6499 12.5C7.6499 10.3704 9.36856 8.65177 11.4981 8.65177C13.6277 8.65177 15.3463 10.3704 15.3463 12.5C15.3463 14.6296 13.6277 16.3482 11.4981 16.3482ZM15.504 9.3929C15.0067 9.3929 14.6052 8.99138 14.6052 8.49417C14.6052 7.99696 15.0067 7.59544 15.504 7.59544C16.0012 7.59544 16.4027 7.99696 16.4027 8.49417C16.4028 8.61223 16.3797 8.72917 16.3346 8.83827C16.2895 8.94738 16.2233 9.04651 16.1398 9.13C16.0563 9.21348 15.9572 9.27968 15.8481 9.32479C15.739 9.3699 15.622 9.39305 15.504 9.3929Z"/>
</svg>

<svg width="24" height="24" xmlns="http://www.w3.org/2000/svg"><path d="M11.498 9.999a2.506 2.506 0 0 0-2.5 2.501 2.506 2.506 0 0 0 2.5 2.501A2.506 2.506 0 0 0 14 12.5a2.506 2.506 0 0 0-2.5-2.501zM19 12.5c0-1.036.01-2.062-.048-3.096-.059-1.2-.332-2.266-1.21-3.144-.88-.88-1.944-1.152-3.145-1.21C13.56 4.99 12.534 5 11.5 5c-1.036 0-2.062-.009-3.096.05-1.2.058-2.266.331-3.144 1.21-.88.88-1.152 1.943-1.21 3.144C3.99 10.44 4 11.466 4 12.5c0 1.034-.009 2.062.05 3.096.058 1.2.331 2.266 1.21 3.145.88.88 1.943 1.151 3.144 1.21 1.036.058 2.062.048 3.096.048 1.036 0 2.062.01 3.096-.048 1.2-.059 2.266-.332 3.145-1.21.88-.88 1.151-1.944 1.21-3.145.06-1.034.048-2.06.048-3.096zm-7.5 3.848a3.843 3.843 0 0 1-3.85-3.848 3.843 3.843 0 0 1 3.85-3.848 3.843 3.843 0 0 1 3.847 3.848 3.843 3.843 0 0 1-3.848 3.848zm4.005-6.955a.898.898 0 1 1 0-1.798.898.898 0 1 1 0 1.798z"/></svg>
